svgs/light/circle-q.svg

<svg xmlns="http://www.w3.org/2000/svg" viewBox="0 0 512 512"><!-- Font Awesome Pro 6.0.0-alpha2 by @fontawesome - https://fontawesome.com License - https://fontawesome.com/license (Commercial License) --><path d="M256 128C185.406 128 128 185.422 128 256S185.406 384 256 384C285.523 384 312.4 373.551 334.076 356.701L356.688 379.312C359.812 382.438 363.906 384 368 384S376.188 382.438 379.312 379.312C385.562 373.062 385.562 362.937 379.312 356.688L356.699 334.074C373.551 312.396 384 285.52 384 256C384 185.422 326.594 128 256 128ZM334.082 311.457L299.312 276.687C293.062 270.437 282.937 270.437 276.688 276.687S270.438 293.062 276.688 299.312L311.457 334.082C295.762 345.266 276.699 352 256 352C203.062 352 160 308.938 160 256S203.062 160 256 160S352 203.062 352 256C352 276.699 345.266 295.762 334.082 311.457ZM256 16C123.451 16 16 123.451 16 256S123.451 496 256 496S496 388.549 496 256S388.549 16 256 16ZM256 464C141.309 464 48 370.691 48 256S141.309 48 256 48S464 141.309 464 256S370.691 464 256 464Z"/></svg>

<svg xmlns="http://www.w3.org/2000/svg" viewBox="0 0 512 512"><!--! Font Awesome Pro 6.0.0-alpha3 by @fontawesome - https://fontawesome.com License - https://fontawesome.com/license (Commercial License) --><path d="M256 0C114.6 0 0 114.6 0 256s114.6 256 256 256s256-114.6 256-256S397.4 0 256 0zM256 480c-123.5 0-224-100.5-224-224s100.5-224 224-224s224 100.5 224 224S379.5 480 256 480zM256 128C185.4 128 128 185.4 128 256s57.41 128 128 128c29.52 0 56.4-10.45 78.08-27.3l22.61 22.61C359.8 382.4 363.9 384 368 384s8.188-1.562 11.31-4.688c6.25-6.25 6.25-16.38 0-22.62l-22.61-22.61C373.6 312.4 384 285.5 384 256C384 185.4 326.6 128 256 128zM334.1 311.5l-34.77-34.77c-6.25-6.25-16.38-6.25-22.62 0s-6.25 16.38 0 22.62l34.77 34.77C295.8 345.3 276.7 352 256 352c-52.94 0-96-43.06-96-96s43.06-96 96-96s96 43.06 96 96C352 276.7 345.3 295.8 334.1 311.5z"/></svg>
